X: 09110
T: SUSAN GORMAN'S
C: Bob McQuillen 13 Mar 93
B: Bob's Note Book 9 p.110
R: reel
Z: 2017 John Chambers <jc:trillian.mit.edu>
L: 1/8
M: C
K: C
cA |\
GAGE G2cd | ecdc A2GF | EGcG AGce | fedc dcBA |
GAGE GAce | ecdc A2gf | efge fdBc | d2c2 c2 :|
|: Bc |\
dedB G2Bc | dcde f2ef | gage cdec | dcBA G2cB |
Acfc Gcec | BcdB cege | fagf ecdc | G2c2 c2 :|
%%begintext align
%% Up in Crafton, NH, there's a nice young
%% woman named Susan Gorman. The happens to be the wife of a very fine fiddler
%% names Skip Gorman who, coincidentally, also lives in Crafton. I've only
%% gotten to know Susan recently while I was playing with Skip for his
%% nice little dance in Grafton Center, but there was no question in my
%% mind that she deserved a tune of her own for helping with the dance.
%% So here it is, Susan, and I hope you like it - Perhaps Skip will play it for
%% you on his fiddle. (He'd better, or I'll smack him!)
%%endtext

%%sep 1 1 500

%%sep 1 1 500

